icons/1_Primary/Time4VPS.svg

<svg width="1024" height="1024" viewBox="0 0 1024 1024" fill="none" xmlns="http://www.w3.org/2000/svg">
<g clip-path="url(#clip0_2_3654)">
<path d="M512 1024C794.77 1024 1024 794.77 1024 512C1024 229.23 794.77 0 512 0C229.23 0 0 229.23 0 512C0 794.77 229.23 1024 512 1024Z" fill="#FF837D"/>
<path d="M187.17 482.44C190.98 482.44 193.05 484.52 193.05 487.98C193.05 491.44 190.97 493.52 187.17 493.52H166.76V544.73C166.76 548.88 164.34 551.3 160.53 551.3C156.72 551.3 154.65 548.88 154.65 544.73V493.51H133.88C130.07 493.51 128 491.43 128 487.97C128 484.51 130.08 482.43 133.88 482.43L187.17 482.44ZM229 488.32V544.72C229 548.87 226.92 551.29 223.12 551.29C219.32 551.29 216.89 548.87 216.89 544.72V488.32C216.89 484.17 218.97 481.75 223.12 481.75C226.62 481.75 229 484.17 229 488.32ZM335.23 490.05V544.72C335.23 548.87 332.81 551.29 329 551.29C325.19 551.29 323.12 548.87 323.12 544.72V503.2H322.77L303.39 534.69C302.01 536.77 300.28 538.15 297.85 538.15C296.695 538.151 295.563 537.827 294.584 537.215C293.604 536.603 292.816 535.728 292.31 534.69L272.3 502.85H271.95V545.07C271.95 548.88 269.87 551.64 266.07 551.64C262.27 551.64 260.19 549.22 260.19 545.07V490.4C260.19 485.56 262.96 482.1 268.19 482.1C271.3 482.1 274.07 483.48 276.19 486.94L297.64 522.24L319.79 486.6C321.87 482.79 324.63 481.76 327.79 481.76C332.51 481.75 335.27 485.21 335.27 490.05H335.23ZM417.59 539.53C421.4 539.53 423.47 541.61 423.47 545.07C423.47 548.53 421.05 550.61 417.59 550.61H372.59C368.44 550.61 366.02 548.19 366.02 544.04V488.67C366.02 484.52 368.44 482.1 372.59 482.1H417.59C421.4 482.1 423.47 484.18 423.47 487.64C423.47 491.1 421.05 493.18 417.59 493.18H378.18V510.48H410C413.81 510.48 415.88 512.56 415.88 516.02C415.88 519.48 413.8 521.56 410 521.56H378.18V539.21H417.63L417.59 539.53ZM503.06 524.65C506.52 524.65 508.94 526.38 508.94 529.84C508.94 530.597 508.785 531.346 508.485 532.04C508.185 532.735 507.747 533.361 507.196 533.88C506.645 534.399 505.994 534.799 505.283 535.057C504.572 535.315 503.815 535.425 503.06 535.38H498.22V544.72C498.22 548.87 495.8 550.95 492.34 550.95C488.53 550.95 486.46 548.53 486.46 544.72V535.38H454.65C450.84 535.38 448.42 532.96 448.42 529.5C448.432 527.569 449.175 525.715 450.5 524.31L485.1 484.86C485.83 483.898 486.771 483.117 487.852 482.578C488.932 482.038 490.122 481.755 491.33 481.75C495.48 481.75 498.25 484.86 498.25 489.36V524.66L503.06 524.65ZM486.45 524.65V499L464 524.65H486.45ZM739.05 450.6C732.82 445.06 717.6 431.6 701.68 435.03C684.03 438.84 676.42 461.03 670.88 476.9C662.88 499.74 648.04 541.95 672.96 569.29C688.53 586.29 717.25 595.29 739.05 584.86C772.62 568.25 766.39 514.27 765.35 505.62C764.31 496.97 760.89 470 739.09 450.6H739.05ZM722.05 525H699V543C699 547.15 696.58 549.92 692.43 549.92C688.28 549.92 685.86 547.5 685.86 543V487.28C685.805 486.357 685.946 485.433 686.274 484.568C686.602 483.703 687.11 482.918 687.764 482.264C688.418 481.61 689.203 481.102 690.068 480.774C690.932 480.446 691.857 480.305 692.78 480.36H722.19C737.42 480.36 745.72 488.36 745.72 502.51C745.67 517 737.36 525 722.14 525H722.05ZM720.67 492.82H699V513.24H721.1C728.713 513.24 732.52 509.78 732.52 502.86C732.52 496.28 728.37 492.47 720.75 492.82H720.67ZM895.76 508.39C894.03 483.82 880.19 451.64 852.51 439.88C825.51 428.46 798.87 442.65 786.42 461.68C761.51 500.44 785.73 575.18 820.68 587.68C854 599.05 899 557.18 895.85 508.39H895.76ZM834.94 552C821.79 552 811.41 548.19 805.87 541.62C804.794 540.232 804.188 538.537 804.14 536.78C804.077 535.946 804.195 535.108 804.486 534.324C804.777 533.539 805.234 532.827 805.825 532.236C806.417 531.644 807.129 531.187 807.914 530.896C808.698 530.606 809.536 530.487 810.37 530.55C811.119 530.486 811.874 530.575 812.588 530.812C813.301 531.049 813.959 531.43 814.52 531.93C819.71 537.12 826.98 539.54 835.97 539.54C845.97 539.54 851.89 535.73 851.89 529.54C851.89 523.35 845.66 522.27 834.24 521.93C813.13 521.58 805.17 516.05 805.17 502.55C805.17 489.05 817 480 834.94 480C845.32 480 853.94 482.77 860.2 488.3C860.885 488.976 861.423 489.786 861.781 490.679C862.139 491.572 862.309 492.529 862.28 493.49C862.325 494.246 862.215 495.002 861.957 495.713C861.699 496.425 861.298 497.076 860.779 497.626C860.26 498.177 859.635 498.616 858.94 498.916C858.245 499.216 857.497 499.37 856.74 499.37C855.022 499.441 853.326 498.961 851.9 498C846.734 494.067 840.391 491.995 833.9 492.12C824.56 492.12 818.33 496.27 818.33 502.12C818.33 507.66 823.87 509.04 835.33 509.04C856.75 509.43 865 515 865 529.5C865 543.69 854.32 552 834.94 552ZM639.09 444.72C619.71 427.42 564.35 439.88 542.2 477.59C526.28 504.59 525.94 547.14 553.27 569.98C571.27 584.86 599.98 590.05 619.36 578.63C633.89 569.98 639.43 547.83 650.16 503.89C651.54 498.01 653.62 489.01 652.24 477.59C651.89 474.82 649.47 454.06 639.09 444.72ZM624.21 490.72L598.6 545.72C597.22 549.18 594.45 551.26 590.99 551.26C587.53 551.26 584.76 549.18 582.99 545.72L557.38 490.72C557.017 489.598 556.785 488.437 556.69 487.26C556.661 486.39 556.811 485.522 557.13 484.712C557.45 483.902 557.933 483.166 558.549 482.55C559.165 481.934 559.901 481.451 560.712 481.131C561.522 480.811 562.389 480.661 563.26 480.69C564.532 480.756 565.76 481.18 566.8 481.915C567.841 482.649 568.652 483.664 569.14 484.84L591 532.61L612.8 485.2C613.8 482.09 615.91 480.7 618.68 480.7C622.49 480.7 625.25 483.47 624.91 486.93C625.017 488.24 624.775 489.554 624.21 490.74V490.72Z" fill="white"/>
</g>
<defs>
<clipPath id="clip0_2_3654">
<rect width="1024" height="1024" fill="white"/>
</clipPath>
</defs>
</svg>

<svg width="1024" height="1024" fill="none" xmlns="http://www.w3.org/2000/svg"><g clip-path="url(#a)"><path d="M512 1024c282.77 0 512-229.23 512-512S794.77 0 512 0 0 229.23 0 512s229.23 512 512 512Z" fill="#FF837D"/><path d="M187.17 482.44c3.81 0 5.88 2.08 5.88 5.54s-2.08 5.54-5.88 5.54h-20.41v51.21c0 4.15-2.42 6.57-6.23 6.57-3.81 0-5.88-2.42-5.88-6.57v-51.22h-20.77c-3.81 0-5.88-2.08-5.88-5.54s2.08-5.54 5.88-5.54l53.29.01Zm41.83 5.88v56.4c0 4.15-2.08 6.57-5.88 6.57s-6.23-2.42-6.23-6.57v-56.4c0-4.15 2.08-6.57 6.23-6.57 3.5 0 5.88 2.42 5.88 6.57Zm106.23 1.73v54.67c0 4.15-2.42 6.57-6.23 6.57-3.81 0-5.88-2.42-5.88-6.57V503.2h-.35l-19.38 31.49c-1.38 2.08-3.11 3.46-5.54 3.46a6.152 6.152 0 0 1-5.54-3.46l-20.01-31.84h-.35v42.22c0 3.81-2.08 6.57-5.88 6.57s-5.88-2.42-5.88-6.57V490.4c0-4.84 2.77-8.3 8-8.3 3.11 0 5.88 1.38 8 4.84l21.45 35.3 22.15-35.64c2.08-3.81 4.84-4.84 8-4.84 4.72-.01 7.48 3.45 7.48 8.29h-.04Zm82.36 49.48c3.81 0 5.88 2.08 5.88 5.54s-2.42 5.54-5.88 5.54h-45c-4.15 0-6.57-2.42-6.57-6.57v-55.37c0-4.15 2.42-6.57 6.57-6.57h45c3.81 0 5.88 2.08 5.88 5.54s-2.42 5.54-5.88 5.54h-39.41v17.3H410c3.81 0 5.88 2.08 5.88 5.54s-2.08 5.54-5.88 5.54h-31.82v17.65h39.45l-.04.32Zm85.47-14.88c3.46 0 5.88 1.73 5.88 5.19a5.546 5.546 0 0 1-1.744 4.04 5.55 5.55 0 0 1-4.136 1.5h-4.84v9.34c0 4.15-2.42 6.23-5.88 6.23-3.81 0-5.88-2.42-5.88-6.23v-9.34h-31.81c-3.81 0-6.23-2.42-6.23-5.88a7.633 7.633 0 0 1 2.08-5.19l34.6-39.45a7.854 7.854 0 0 1 6.23-3.11c4.15 0 6.92 3.11 6.92 7.61v35.3l4.81-.01Zm-16.61 0V499L464 524.65h22.45Zm252.6-74.05c-6.23-5.54-21.45-19-37.37-15.57-17.65 3.81-25.26 26-30.8 41.87-8 22.84-22.84 65.05 2.08 92.39 15.57 17 44.29 26 66.09 15.57 33.57-16.61 27.34-70.59 26.3-79.24-1.04-8.65-4.46-35.62-26.26-55.02h-.04Zm-17 74.4H699v18c0 4.15-2.42 6.92-6.57 6.92s-6.57-2.42-6.57-6.92v-55.72a6.55 6.55 0 0 1 1.904-5.016 6.535 6.535 0 0 1 5.016-1.904h29.41c15.23 0 23.53 8 23.53 22.15-.05 14.49-8.36 22.49-23.58 22.49h-.09Zm-1.38-32.18H699v20.42h22.1c7.613 0 11.42-3.46 11.42-10.38 0-6.58-4.15-10.39-11.77-10.04h-.08Zm175.09 15.57c-1.73-24.57-15.57-56.75-43.25-68.51-27-11.42-53.64 2.77-66.09 21.8-24.91 38.76-.69 113.5 34.26 126 33.32 11.37 78.32-30.5 75.17-79.29h-.09ZM834.94 552c-13.15 0-23.53-3.81-29.07-10.38a8.267 8.267 0 0 1-1.73-4.84 5.803 5.803 0 0 1 1.685-4.544 5.81 5.81 0 0 1 4.545-1.686 5.525 5.525 0 0 1 4.15 1.38c5.19 5.19 12.46 7.61 21.45 7.61 10 0 15.92-3.81 15.92-10 0-6.19-6.23-7.27-17.65-7.61-21.11-.35-29.07-5.88-29.07-19.38S817 480 834.94 480c10.38 0 19 2.77 25.26 8.3a7.004 7.004 0 0 1 2.08 5.19 5.548 5.548 0 0 1-5.54 5.88 8.065 8.065 0 0 1-4.84-1.37 28.8 28.8 0 0 0-18-5.88c-9.34 0-15.57 4.15-15.57 10 0 5.54 5.54 6.92 17 6.92 21.42.39 29.67 5.96 29.67 20.46 0 14.19-10.68 22.5-30.06 22.5ZM639.09 444.72c-19.38-17.3-74.74-4.84-96.89 32.87-15.92 27-16.26 69.55 11.07 92.39 18 14.88 46.71 20.07 66.09 8.65 14.53-8.65 20.07-30.8 30.8-74.74 1.38-5.88 3.46-14.88 2.08-26.3-.35-2.77-2.77-23.53-13.15-32.87Zm-14.88 46-25.61 55c-1.38 3.46-4.15 5.54-7.61 5.54s-6.23-2.08-8-5.54l-25.61-55a15.218 15.218 0 0 1-.69-3.46 6.365 6.365 0 0 1 6.57-6.57 6.738 6.738 0 0 1 5.88 4.15L591 532.61l21.8-47.41c1-3.11 3.11-4.5 5.88-4.5 3.81 0 6.57 2.77 6.23 6.23a7.448 7.448 0 0 1-.7 3.81v-.02Z" fill="#fff"/></g><defs><clipPath id="a"><path fill="#fff" d="M0 0h1024v1024H0z"/></clipPath></defs></svg>
